documentation/public/assets/images/text-area.svg

<svg width="293" height="72" viewBox="0 0 293 72" fill="none" xmlns="http://www.w3.org/2000/svg">
<rect x="0.5" y="0.5" width="292" height="71" rx="3.5" fill="white"/>
<path d="M12.7727 9.61364V8.36364H21.5V9.61364H17.8409V20H16.4318V9.61364H12.7727ZM25.8864 20.1818C25.0455 20.1818 24.3201 19.9962 23.7102 19.625C23.1042 19.25 22.6364 18.7273 22.3068 18.0568C21.9811 17.3826 21.8182 16.5985 21.8182 15.7045C21.8182 14.8106 21.9811 14.0227 22.3068 13.3409C22.6364 12.6553 23.0947 12.1212 23.6818 11.7386C24.2727 11.3523 24.9621 11.1591 25.75 11.1591C26.2045 11.1591 26.6534 11.2348 27.0966 11.3864C27.5398 11.5379 27.9432 11.7841 28.3068 12.125C28.6705 12.4621 28.9602 12.9091 29.1761 13.4659C29.392 14.0227 29.5 14.7083 29.5 15.5227V16.0909H22.7727V14.9318H28.1364C28.1364 14.4394 28.0379 14 27.8409 13.6136C27.6477 13.2273 27.3712 12.9223 27.0114 12.6989C26.6553 12.4754 26.2348 12.3636 25.75 12.3636C25.2159 12.3636 24.7538 12.4962 24.3636 12.7614C23.9773 13.0227 23.6799 13.3636 23.4716 13.7841C23.2633 14.2045 23.1591 14.6553 23.1591 15.1364V15.9091C23.1591 16.5682 23.2727 17.1269 23.5 17.5852C23.7311 18.0398 24.0511 18.3864 24.4602 18.625C24.8693 18.8598 25.3447 18.9773 25.8864 18.9773C26.2386 18.9773 26.5568 18.928 26.8409 18.8295C27.1288 18.7273 27.3769 18.5758 27.5852 18.375C27.7936 18.1705 27.9545 17.9167 28.0682 17.6136L29.3636 17.9773C29.2273 18.4167 28.9981 18.803 28.6761 19.1364C28.3542 19.4659 27.9564 19.7235 27.483 19.9091C27.0095 20.0909 26.4773 20.1818 25.8864 20.1818ZM32.3054 11.2727L34.3963 14.8409L36.4872 11.2727H38.0327L35.2145 15.6364L38.0327 20H36.4872L34.3963 16.6136L32.3054 20H30.7599L33.5327 15.6364L30.7599 11.2727H32.3054ZM43.7415 11.2727V12.4091H39.2188V11.2727H43.7415ZM40.5369 9.18182H41.8778V17.5C41.8778 17.8788 41.9328 18.1629 42.0426 18.3523C42.1563 18.5379 42.3002 18.6629 42.4744 18.7273C42.6525 18.7879 42.84 18.8182 43.0369 18.8182C43.1847 18.8182 43.3059 18.8106 43.4006 18.7955C43.4953 18.7765 43.571 18.7614 43.6278 18.75L43.9006 19.9545C43.8097 19.9886 43.6828 20.0227 43.5199 20.0568C43.357 20.0947 43.1506 20.1136 42.9006 20.1136C42.5218 20.1136 42.1506 20.0322 41.7869 19.8693C41.4271 19.7064 41.1278 19.4583 40.8892 19.125C40.6544 18.7917 40.5369 18.3712 40.5369 17.8636V9.18182Z" fill="#1F1F1F"/>
<rect x="0.5" y="0.5" width="292" height="71" rx="3.5" stroke="#545454"/>
</svg>

<svg width="293" height="72" fill="none" xmlns="http://www.w3.org/2000/svg"><rect x=".5" y=".5" width="292" height="71" rx="3.5" fill="#fff"/><path d="M12.77 9.61V8.36h8.73v1.25h-3.66V20h-1.4V9.61h-3.67ZM25.9 20.18a3.74 3.74 0 0 1-3.58-2.13 5.35 5.35 0 0 1-.5-2.35c0-.89.17-1.68.5-2.36a3.7 3.7 0 0 1 3.44-2.18 4 4 0 0 1 1.35.23 3.34 3.34 0 0 1 2.08 2.08c.21.55.32 1.24.32 2.05v.57h-6.73v-1.16h5.37c0-.5-.1-.93-.3-1.32a2.23 2.23 0 0 0-2.09-1.25 2.47 2.47 0 0 0-2.28 1.42 3 3 0 0 0-.31 1.36v.77c0 .66.11 1.22.34 1.68a2.48 2.48 0 0 0 2.39 1.39c.35 0 .67-.05.95-.15.29-.1.54-.25.75-.45.2-.2.36-.46.48-.77l1.3.37a2.9 2.9 0 0 1-.7 1.16c-.32.33-.71.58-1.19.77-.47.18-1 .27-1.6.27Zm6.42-8.9 2.09 3.56 2.09-3.57h1.54l-2.82 4.37L38.03 20H36.5l-2.1-3.39L32.32 20h-1.55l2.77-4.36-2.77-4.37h1.55Zm11.43 0v1.13h-4.52v-1.14h4.52Zm-3.2-2.1h1.34v8.32c0 .38.05.66.16.85.12.19.26.31.43.38.18.06.37.09.57.09.14 0 .27 0 .36-.02l.23-.05.27 1.2a2.73 2.73 0 0 1-1 .16 2.7 2.7 0 0 1-1.11-.24 2.21 2.21 0 0 1-.9-.75 2.14 2.14 0 0 1-.35-1.26V9.18Z" fill="#1F1F1F"/><rect x=".5" y=".5" width="292" height="71" rx="3.5" stroke="#545454"/></svg>
